src/components/icons/NotificationIcon.svg

<svg width="24" height="24" viewBox="0 0 24 24" fill="none" xmlns="http://www.w3.org/2000/svg">
<path d="M13.6666 18.8421C14.2189 18.8421 14.6808 19.2979 14.5328 19.83C14.4035 20.295 14.1834 20.7224 13.8856 21.075C13.3855 21.6673 12.7072 22 12 22C11.2927 22 10.6145 21.6673 10.1144 21.075C9.81658 20.7224 9.5965 20.295 9.46717 19.83C9.31916 19.2979 9.78103 18.8421 10.3333 18.8421L12 18.8421H13.6666Z" fill="#8DA2CB"/>
<path d="M4 17.8103H12V2.02079C10.2222 2.00095 6.35294 2.75763 6.35294 7.81026C6.35294 12.8629 5.33335 13.6207 4 15.705C2.66665 17.7893 4 17.8103 4 17.8103Z" fill="#8DA2CB"/>
<path d="M20 17.7904H12V2.02079C13.7778 2.00097 17.6471 2.75671 17.6471 7.803C17.6471 12.8493 18.6667 13.6061 20 15.6878C21.3333 17.7695 20 17.7904 20 17.7904Z" fill="#8DA2CB"/>
</svg>

<svg width="24" height="24" fill="none" xmlns="http://www.w3.org/2000/svg"><path d="M13.667 18.842c.552 0 1.014.456.866.988-.13.465-.35.892-.647 1.245-.5.592-1.179.925-1.886.925-.707 0-1.386-.333-1.886-.925a3.297 3.297 0 01-.647-1.245c-.148-.532.314-.988.866-.988h3.334zM4 17.81h8V2.02c-1.778-.02-5.647.738-5.647 5.79 0 5.053-1.02 5.81-2.353 7.895-1.333 2.084 0 2.105 0 2.105zM20 17.79h-8V2.02c1.778-.019 5.647.737 5.647 5.783s1.02 5.803 2.353 7.885c1.333 2.082 0 2.102 0 2.102z" fill="#8DA2CB"/></svg>
